X:18
T:Waltz. 2voices. Dix.18
M:3/8
L:1/8
Q:1/8=100
S:Anon. MS dated 1811, from Dixon collection, Holton le Moor, Lincs.
R:waltz
N:Repeat signs added at start
O:England;Lincolnshire;Holton le Moor
Z:vmp.R.Greig 2010 <http://www.village-music-project.org.uk>
K:F
[V:1]|:F/G/|[AF][AF][BG]|[c2A2][f/d/][d/B/]|[cA][cA] [d/B/][B/G/]|[AF][AF] F/G/|
[V:2]|:z|F,A,C|F,A,C|F,A,C|F,A,C|
[V:1][AF][AF][BG]|[c2A2]f|f/e/d/c/d/e/|f2:|
[V:2]F,A,C|F,A,C|C,G,C|F,F,,:|
[V:1]|:c|[bg][bg] c|[af][af] f|ee/g/f/a/|[ge][ge] c|
[V:2]|:z|[CC,][CC,]z|[F,F,,][F,F,,] A,|[CG,][CG,][CG,]|[CG,E,][CG,E,]z|
[V:1][bg][bg] c|[af][af]f|{a}ge/c/d/e/|[f2A2]:|
[V:2][CC,][CC,]z|[F,F,,][F,F,,]A,|B,/G,/CC,|F,F,,:|
[V:1]|:c|c2 A|A2F|{A}GG/F/G/A/|FF/G/A/B/|
[V:2]|:z|F,,A,,C,|F,,A,,C,|C,,G,,C,|F,,A,,C,|
[V:1]c2A|A2F|{A}GG/F/G/A/|[F2A,2]:|
[V:2]F,,A,,C,|F,,A,,C,|C,,B,,D,|F,,F,:|

